smart-lab/build/images/icons/header/message.svg

<svg width="96" height="96" fill="none" xmlns="http://www.w3.org/2000/svg"><path d="M80 16H16c-4.4 0-7.96 3.6-7.96 8L8 72c0 4.4 3.6 8 8 8h64c4.4 0 8-3.6 8-8V24c0-4.4-3.6-8-8-8zm0 16L48 52 16 32v-8l32 20 32-20v8z" fill="#000"/></svg>

<svg width="96" height="96" viewBox="0 0 96 96" fill="none" xmlns="http://www.w3.org/2000/svg">
<path d="M80 16H16C11.6 16 8.04 19.6 8.04 24L8 72C8 76.4 11.6 80 16 80H80C84.4 80 88 76.4 88 72V24C88 19.6 84.4 16 80 16ZM80 32L48 52L16 32V24L48 44L80 24V32Z" fill="black"/>
</svg>
